modules/themify-icons/icons/email.svg

<?xml version="1.0" encoding="utf-8"?>
<!-- Generated by IcoMoon.io -->
<!DOCTYPE svg PUBLIC "-//W3C//DTD SVG 1.1//EN" "http://www.w3.org/Graphics/SVG/1.1/DTD/svg11.dtd">
<svg version="1.1" xmlns="http://www.w3.org/2000/svg" xmlns:xlink="http://www.w3.org/1999/xlink" width="17" height="17" viewBox="0 0 17 17">
<g>
</g>
	<path d="M0 2v13h17v-13h-17zM8.494 9.817l-6.896-6.817h13.82l-6.924 6.817zM5.755 8.516l-4.755 4.682v-9.383l4.755 4.701zM6.466 9.219l2.026 2.003 1.996-1.966 4.8 4.744h-13.677l4.855-4.781zM11.201 8.555l4.799-4.725v9.467l-4.799-4.742z" fill="#000000" />
</svg>

<svg xmlns="http://www.w3.org/2000/svg" width="17" height="17" viewBox="0 0 17 17"><path d="M0 2v13h17V2H0zm8.494 7.817L1.598 3h13.82L8.494 9.817zM5.755 8.516L1 13.198V3.815l4.755 4.701zm.711.703l2.026 2.003 1.996-1.966 4.8 4.744H1.611l4.855-4.781zm4.735-.664L16 3.83v9.467l-4.799-4.742z"/></svg>
